X:103
T:B103-  Daphne
Q:1/4=120
L:1/4
M:6/4
K:Dm
D|F2GA2d|^c3/2d/2ed2A|cAFGEC|[1 DFE D2:| [2 DFE D3|:\
f2fe2e|d2d^c2A|A3/2G/2FE2F|F2EF3:|\
ccdcAF|ccdgec|A3/2G/2FE2d|\
d^c2dA2|c3/2B/2AG2D|FE2.D3|]
